!!!!SEGMENT:Takenisuzume.krn
!!!OTL: 竹に雀
!!!OPR:Eiga Banso Kyokusyu,jidai-geki,kouhen
!!!YOY:1928
!!!ONB:Syuen
**kern
*clefG2
*k[f#]
*G:
*M2/4
=1
8ff#L
8ff#J
8ff#L
8ff#J
=2
4ff#
8eeL
8eeJ
=3
8eeL
8cc
8ee
8ccJ
=4
4cc
8bL
8aJ
=5
8BL
8BJ
8eeL
16ff#L
16eeJJ
=6
8ccL
8b
8a
8bJ
=7
8ccL
8bJ
8aL
8ccJ
=8
4cc
4b
=9
8gL
8b
8b
8gJ
=10
4g
4f#
=11
4g
8bL
16bL
16bJJ
=12
8gL
8b
8g
8f#J
=13
8gL
8gJ
8f#L
8gJ
=14
4e
4c
=15
4B
8eeL
8eeJ
=16
8ccL
8eeJ
8ccL
8bJ
=17
*^
8ra	4ee
8ee	.
8ra	4ff#
8ff#	.
*v	*v
=18
8ggL
8gg
8ff#
8ggJ
=19
8eeL
8eeJ
8ff#L
8eeJ
=20
8ccL
8eeJ
8ccL
8bJ
=21
8BL
8eJ
8f#L
8eJ
=22
4f#
8f#L
8aJ
=23
8bL
8bJ
8BL
8bJ
=24
4b
4r
==
*-
!!!ENC: Yukiko Yoden
!!!END: 2023/06/11
